; HEADER_BLOCK_START
; generated by Creality_Print V5.1.7.10471 on 2024-11-14 at 16:30:31
; total layer number: 102
; filament_density: 1.24
; filament_diameter: 1.75
; max_z_height: 20.40
; HEADER_BLOCK_END

; MINX = 107.27
; MINY = 103.79
; MINZ = 0.00
; MAXX = 152.73
; MAXY = 156.21
; MAXZ = 20.46

; THUMBNAIL_BLOCK_START

;
; THUMBNAIL_BLOCK_END

; THUMBNAIL_BLOCK_START

;
; THUMBNAIL_BLOCK_END

; external perimeters extrusion width = 0.42mm
; perimeters extrusion width = 0.45mm
; infill extrusion width = 0.45mm
; solid infill extrusion width = 0.42mm
; top infill extrusion width = 0.42mm
; first layer extrusion width = 0.50mm

; EXECUTABLE_BLOCK_START
EXCLUDE_OBJECT_DEFINE NAME=block.stl_1_id_0_copy_0 CENTER=130,130 POLYGON=[[107.268,134.29],[107.271,134.242],[107.278,134.194],[107.286,134.161],[107.289,134.147],[107.306,134.101],[107.326,134.057],[120.718,106.713],[120.878,106.394],[121.06,106.087],[121.264,105.794],[121.488,105.516],[121.731,105.255],[121.992,105.011],[122.27,104.787],[122.563,104.584],[122.87,104.402],[123.19,104.242],[123.519,104.105],[123.858,103.993],[124.204,103.904],[124.555,103.841],[124.91,103.803],[125.267,103.79],[147.732,103.79],[148.088,103.803],[148.443,103.841],[148.794,103.904],[149.14,103.993],[149.479,104.105],[149.809,104.242],[150.128,104.402],[150.435,104.584],[150.728,104.787],[151.006,105.011],[151.267,105.255],[151.51,105.516],[151.734,105.794],[151.938,106.087],[152.12,106.394],[152.28,106.713],[152.416,107.043],[152.529,107.381],[152.617,107.727],[152.681,108.078],[152.719,108.433],[152.732,108.79],[152.732,134.39],[152.719,134.747],[152.681,135.102],[152.617,135.453],[152.529,135.799],[152.416,136.137],[152.28,136.467],[152.12,136.786],[151.938,137.093],[151.734,137.386],[151.51,137.664],[151.267,137.926],[151.006,138.169],[150.728,138.393],[129.844,155.19],[129.681,155.316],[129.512,155.433],[129.338,155.54],[129.16,155.638],[128.979,155.726],[128.795,155.804],[128.61,155.872],[128.424,155.93],[128.237,155.979],[128.051,156.018],[127.866,156.048],[127.682,156.069],[127.501,156.081],[127.323,156.085],[116.767,156.21],[107.768,156.21],[107.666,156.194],[107.577,156.171],[107.486,156.117],[107.415,156.064],[107.351,155.98],[107.307,155.901],[107.278,155.801],[107.268,155.71],[107.268,134.29]]
M73 P0 R17
;TYPE:Custom
M140 S0
M104 S0 
START_PRINT EXTRUDER_TEMP=220 BED_TEMP=60
T0
M204 S2000
G1 Z3 F600
M83
G92 E0
G1 Z1 F600
G90
G21
M83 ; use relative distances for extrusion
; filament start gcode
 
M104 S220
M106 S0
;LAYER_CHANGE
;Z:0.2
;HEIGHT:0.2
;BEFORE_LAYER_CHANGE
;0.2
G92 E0

G1 E-.8 F2400
;AFTER_LAYER_CHANGE
;0.2
;_SET_FAN_SPEED_CHANGING_LAYER
SET_VELOCITY_LIMIT ACCEL=2000 ACCEL_TO_DECEL=500
SET_VELOCITY_LIMIT SQUARE_CORNER_VELOCITY=8
; printing object block.stl_1 id:0 copy 0
EXCLUDE_OBJECT_START NAME=block.stl_1_id_0_copy_0
G1 X108.848 Y135.236 F30000
G1 Z.4
G1 Z.2
G1 E.8 F2400
;TYPE:Inner wall
;WIDTH:0.499999
G1 F3600
G1 X117.345 Y135.239 E.30679
G1 X118.243 Y135.129 E.03267
G1 X119.082 Y134.85 E.03191
G1 X119.837 Y134.419 E.03141
G1 X120.395 Y133.951 E.02631
G2 X121.019 Y133.178 I-7.077 J-6.344 E.03587
G1 X121.408 Y132.41 E.03108
G1 X121.643 Y131.585 E.03098
G1 X121.72 Y130.785 E.02901
G1 X121.713 Y109.151 E.7811
G1 X121.734 Y108.482 E.02418
G1 X121.871 Y107.773 E.02608
G1 X122.13 Y107.138 E.02474
G1 X122.507 Y106.565 E.02478
G1 X122.987 Y106.075 E.02478
G1 X123.552 Y105.687 E.02474
G1 X124.2 Y105.41 E.02544
G1 X124.901 Y105.263 E.02584
G1 X125.62 Y105.236 E.02598
G1 X147.164 Y105.235 E.77787
G3 X148.415 Y105.312 I.154 J7.755 E.04533
G1 X149.072 Y105.508 E.02474
G1 X149.679 Y105.828 E.02478
G1 X150.213 Y106.259 E.02478
G1 X150.654 Y106.784 E.02476
G1 X150.989 Y107.392 E.02505
G1 X151.201 Y108.063 E.02542
G3 X151.281 Y109.362 I-6.698 J1.067 E.04703
G1 X151.286 Y110.418 E.03816
G1 X151.286 Y134.027 E.85242
G1 X151.264 Y134.698 E.02424
G1 X151.127 Y135.408 E.02608
G1 X150.868 Y136.042 E.02474
G1 X150.491 Y136.615 E.02478
G1 X150.011 Y137.105 E.02478
G1 X149.446 Y137.493 E.02474
G1 X148.798 Y137.771 E.02544
G1 X148.098 Y137.917 E.02584
G1 X147.377 Y137.944 E.02603
G1 X136.498 Y137.945 E.39279
G2 X134.677 Y137.981 I-.555 J17.712 E.06581
G1 X133.749 Y138.175 E.03422
G2 X132.632 Y138.654 I4.431 J11.887 E.04389
G1 X131.77 Y139.261 E.03808
G1 X131.041 Y140.023 E.03807
G2 X130.473 Y140.911 I18.59 J12.527 E.03808
G1 X130.124 Y141.765 E.0333
G1 X130.062 Y142.017 E.00939
G1 X129.891 Y143.049 E.03776
G1 X129.878 Y143.934 E.03196
G1 X129.878 Y151.726 E.28133
G1 X129.857 Y152.308 E.02103
G1 X129.757 Y152.81 E.01848
G1 X129.566 Y153.271 E.018
G1 X129.289 Y153.685 E.018
G1 X128.936 Y154.038 E.018
G1 X128.522 Y154.315 E.018
G1 X128.061 Y154.506 E.018
G3 X127.01 Y154.626 I-.899 J-3.208 E.03837
G1 X108.348 Y154.626 E.67381
G1 X108.348 Y135.236 E.70012
G1 X108.788 Y135.236 E.01589
G1 E-.8 F2400
;WIPE_START
G1 F3600
G1 X110.788 Y135.237
;WIPE_END
G1 X107.869 Y134.757 Z.6 F30000
G1 Z.2
G1 E.8 F2400
;TYPE:Outer wall
G1 F3600
G1 X117.293 Y134.763 E.34026
G1 X118.099 Y134.672 E.02926
G1 X118.851 Y134.431 E.02852
G1 X119.629 Y133.969 E.03269
G1 X120.116 Y133.555 E.02306
G1 X120.595 Y132.955 E.02775
G1 X120.95 Y132.273 E.02775
G1 X121.167 Y131.536 E.02773
G2 X121.233 Y130.208 I-5.797 J-.957 E.0481
G1 X121.234 Y109.144 E.76056
G1 X121.257 Y108.429 E.02584
G1 X121.41 Y107.635 E.02917
G1 X121.705 Y106.914 E.02812
G1 X122.133 Y106.263 E.02814
G1 X122.678 Y105.707 E.02814
G1 X123.321 Y105.266 E.02812
G1 X124.055 Y104.951 E.02887
G1 X124.842 Y104.786 E.02902
G1 X125.611 Y104.757 E.02776
G1 X147.167 Y104.757 E.77832
G3 X148.508 Y104.84 I.158 J8.305 E.04855
G1 X149.254 Y105.063 E.02812
G1 X149.943 Y105.426 E.02814
G1 X150.55 Y105.915 E.02814
G1 X151.051 Y106.512 E.02813
G1 X151.431 Y107.203 E.02846
G1 X151.672 Y107.966 E.02891
G1 X151.757 Y108.807 E.03051
G3 X151.765 Y110.422 I-1672.827 J8.448 E.05833
G1 X151.764 Y134.035 E.85254
G1 X151.741 Y134.752 E.0259
G1 X151.588 Y135.545 E.02917
G1 X151.294 Y136.266 E.02813
G1 X150.865 Y136.917 E.02814
G1 X150.32 Y137.473 E.02814
G1 X149.678 Y137.914 E.02812
G1 X148.943 Y138.229 E.02887
G1 X148.156 Y138.394 E.02902
G1 X147.386 Y138.423 E.02782
G1 X135.89 Y138.423 E.41508
G2 X134.775 Y138.45 I-.386 J7.254 E.04031
G1 X133.847 Y138.644 E.03422
G2 X132.903 Y139.048 I10.92 J26.781 E.03708
G1 X132.112 Y139.596 E.03474
G1 X131.441 Y140.286 E.03474
G1 X130.934 Y141.056 E.0333
G2 X130.531 Y142.108 I10.714 J4.707 E.04068
G1 X130.371 Y142.953 E.03103
G1 X130.356 Y143.931 E.03533
G1 X130.356 Y151.735 E.28176
G1 X130.333 Y152.364 E.02273
G1 X130.217 Y152.95 E.02156
G1 X129.99 Y153.497 E.0214
G1 X129.661 Y153.99 E.02141
G1 X129.241 Y154.409 E.0214
G1 X128.749 Y154.739 E.02141
G1 X128.201 Y154.966 E.02141
G3 X127.019 Y155.104 I-1.021 J-3.605 E.04316
G1 X107.896 Y155.105 E.69045
G1 X107.869 Y154.778 E.01184
G1 X107.869 Y134.817 E.72071
G1 E-.8 F2400
;WIPE_START
G1 F3600
G1 X109.869 Y134.806
;WIPE_END
G1 X116.286 Y130.673 Z.6 F30000
G1 X151.105 Y108.251 Z.6
G1 Z.2
G1 E.8 F2400
;TYPE:Bottom surface
;WIDTH:0.500353
G1 F3600
G1 X148.536 Y105.682 E.13127
G1 X148.354 Y105.627 E.00687
G1 X147.78 Y105.573 E.02083
G1 X150.948 Y108.74 E.16188
G3 X150.959 Y109.398 I-3.253 J.384 E.02382
G1 X147.116 Y105.556 E.19638
G1 X146.469 Y105.556 E.02337
G1 X150.959 Y110.046 E.22944
G1 X150.959 Y110.693 E.02338
G1 X145.822 Y105.556 E.26251
G1 X145.175 Y105.556 E.02337
G1 X150.96 Y111.34 E.29558
G1 X150.96 Y111.987 E.02338
G1 X144.528 Y105.556 E.32864
G1 X143.882 Y105.556 E.02337
G1 X150.96 Y112.634 E.36171
G1 X150.96 Y113.281 E.02338
G1 X143.235 Y105.556 E.39477
G1 X142.588 Y105.556 E.02337
G1 X150.96 Y113.928 E.42784
G1 X150.96 Y114.575 E.02338
G1 X141.941 Y105.556 E.46091
G1 X141.294 Y105.556 E.02337
G1 X150.961 Y115.222 E.49397
G1 X150.961 Y115.869 E.02338
G1 X140.647 Y105.556 E.52704
G1 X140 Y105.556 E.02337
G1 X150.961 Y116.516 E.5601
M73 P1 R17
G1 X150.961 Y117.163 E.02338
G1 X139.353 Y105.556 E.59317
G1 X138.706 Y105.556 E.02337
G1 X150.961 Y117.811 E.62624
G1 X150.961 Y118.458 E.02338
G1 X138.059 Y105.556 E.6593
G1 X137.413 Y105.556 E.02337
G1 X150.962 Y119.105 E.69237
G1 X150.962 Y119.752 E.02338
G1 X136.766 Y105.556 E.72544
G1 X136.119 Y105.556 E.02337
G1 X150.962 Y120.399 E.7585
G1 X150.962 Y121.046 E.02338
G1 X135.472 Y105.556 E.79157
G1 X134.825 Y105.556 E.02337
G1 X150.962 Y121.693 E.82463
G1 X150.962 Y122.34 E.02338
G1 X134.178 Y105.556 E.8577
G1 X133.531 Y105.556 E.02337
G1 X150.963 Y122.987 E.89077
G1 X150.963 Y123.634 E.02338
G1 X132.884 Y105.556 E.92383
G1 X132.237 Y105.556 E.02337
G1 X150.963 Y124.281 E.9569
G1 X150.963 Y124.928 E.02338
G1 X131.591 Y105.556 E.98996
G1 X130.944 Y105.556 E.02337
G1 X150.963 Y125.576 E1.02303
G1 X150.964 Y126.223 E.02338
G1 X130.297 Y105.556 E1.0561
G1 X129.65 Y105.556 E.02337
G1 X150.964 Y126.87 E1.08916
G1 X150.964 Y127.517 E.02338
G1 X129.003 Y105.556 E1.12223
G1 X128.356 Y105.556 E.02337
G1 X150.964 Y128.164 E1.1553
G1 X150.964 Y128.811 E.02338
G1 X127.709 Y105.556 E1.18836
G1 X127.062 Y105.556 E.02337
G1 X150.964 Y129.458 E1.22143
G1 X150.965 Y130.105 E.02338
G1 X126.415 Y105.556 E1.25449
G1 X125.768 Y105.556 E.02337
G1 X150.965 Y130.752 E1.28756
G1 X150.965 Y131.399 E.02338
G1 X125.14 Y105.574 E1.31969
M73 P2 R17
G2 X124.576 Y105.658 I-.036 J1.701 E.02068
G1 X150.965 Y132.046 E1.34849
G1 X150.965 Y132.694 E.02338
G1 X124.081 Y105.809 E1.37384
G1 X123.707 Y105.969 E.01467
G1 X123.64 Y106.015 E.00296
G1 X150.965 Y133.341 E1.39636
G1 X150.966 Y133.988 E.02338
G1 X123.256 Y106.278 E1.41598
G1 X123.194 Y106.321 E.00273
G1 X122.926 Y106.595 E.01385
G1 X150.947 Y134.616 E1.4319
G1 X150.848 Y135.164 E.02014
G1 X122.636 Y106.952 E1.4417
G1 X122.389 Y107.351 E.01698
G1 X150.684 Y135.647 E1.44592
G3 X150.464 Y136.074 I-1.198 J-.346 E.01747
G1 X122.201 Y107.811 E1.44428
G1 X122.087 Y108.343 E.01968
G1 X150.199 Y136.456 E1.43659
G1 X149.879 Y136.783 E.01653
G1 X122.039 Y108.943 E1.42264
G2 X122.033 Y109.583 I9.957 J.424 E.02314
G1 X149.51 Y137.061 E1.40414
G3 X149.097 Y137.294 I-.794 J-.922 E.01726
G1 X122.033 Y110.23 E1.38301
G1 X122.033 Y110.877 E.02338
G1 X148.634 Y137.478 E1.35933
G1 X148.099 Y137.59 E.01975
G1 X122.033 Y111.524 E1.33197
G1 X122.034 Y112.172 E.02338
G1 X147.482 Y137.62 E1.30045
M73 P3 R17
G3 X146.839 Y137.624 I-.372 J-8.387 E.02324
G1 X122.034 Y112.819 E1.26757
G1 X122.034 Y113.466 E.02338
G1 X146.192 Y137.623 E1.23449
G1 X145.544 Y137.623 E.02339
G1 X122.034 Y114.113 E1.2014
G1 X122.034 Y114.76 E.02338
G1 X144.897 Y137.623 E1.16831
G1 X144.25 Y137.622 E.02339
G1 X122.035 Y115.407 E1.13522
G1 X122.035 Y116.054 E.02338
G1 X143.603 Y137.622 E1.10213
G1 X142.955 Y137.622 E.02339
G1 X122.035 Y116.701 E1.06905
G1 X122.035 Y117.348 E.02338
G1 X142.308 Y137.621 E1.03596
G1 X141.661 Y137.621 E.02339
G1 X122.035 Y117.996 E1.00287
G1 X122.036 Y118.643 E.02338
G1 X141.013 Y137.62 E.96978
G1 X140.366 Y137.62 E.02339
G1 X122.036 Y119.29 E.93669
G1 X122.036 Y119.937 E.02338
G1 X139.719 Y137.62 E.90361
G1 X139.071 Y137.619 E.02339
G1 X122.036 Y120.584 E.87052
G1 X122.036 Y121.231 E.02338
G1 X138.424 Y137.619 E.83743
G1 X137.777 Y137.619 E.02339
G1 X122.037 Y121.878 E.80434
G1 X122.037 Y122.525 E.02338
G1 X137.13 Y137.618 E.77125
G1 X136.482 Y137.618 E.02339
G1 X122.037 Y123.173 E.73816
G1 X122.037 Y123.82 E.02338
G1 X135.835 Y137.617 E.70508
G2 X135.195 Y137.624 I-.257 J5.707 E.02313
G1 X122.038 Y124.467 E.67237
G1 X122.038 Y125.114 E.02338
G1 X134.603 Y137.679 E.64208
G1 X134.063 Y137.786 E.01987
G1 X122.038 Y125.761 E.61451
G1 X122.038 Y126.408 E.02338
G1 X133.538 Y137.908 E.58764
G2 X133.084 Y138.101 I.675 J2.211 E.01785
G1 X122.038 Y127.055 E.56445
M73 P4 R17
G1 X122.039 Y127.702 E.02338
G1 X132.634 Y138.298 E.54144
G2 X132.233 Y138.543 I.432 J1.158 E.01711
G1 X122.039 Y128.35 E.52092
G1 X122.039 Y128.997 E.02338
G1 X131.85 Y138.807 E.50134
G2 X131.49 Y139.095 I.561 J1.07 E.01673
G1 X122.039 Y129.644 E.48296
G1 X122.039 Y130.291 E.02338
G1 X131.17 Y139.422 E.46659
G1 X130.85 Y139.748 E.01653
G1 X122.026 Y130.925 E.45089
G1 X121.971 Y131.516 E.02145
G1 X130.588 Y140.134 E.44038
G1 X130.33 Y140.522 E.01686
G1 X121.851 Y132.043 E.4333
G1 X121.7 Y132.539 E.01873
G1 X130.111 Y140.95 E.42981
G1 X129.923 Y141.409 E.01793
G1 X121.486 Y132.972 E.43116
G3 X121.259 Y133.392 I-2.152 J-.89 E.01728
G1 X129.76 Y141.893 E.43438
G1 X129.655 Y142.435 E.01995
G1 X120.977 Y133.757 E.44343
G1 X120.688 Y134.114 E.01662
G1 X129.572 Y142.999 E.454
G1 X129.562 Y143.636 E.02303
G1 X120.339 Y134.412 E.47135
G3 X119.984 Y134.705 I-1.563 J-1.53 E.01663
G1 X129.558 Y144.278 E.48921
G1 X129.558 Y144.925 E.02338
G1 X119.574 Y134.942 E.51017
G1 X119.155 Y135.169 E.01724
G1 X129.558 Y145.572 E.53159
G1 X129.558 Y146.219 E.02338
G1 X118.667 Y135.328 E.55653
G3 X118.163 Y135.471 I-.858 J-2.062 E.01897
G1 X129.558 Y146.866 E.58228
G1 X129.558 Y147.513 E.02338
G1 X117.577 Y135.532 E.61226
G3 X116.961 Y135.563 I-.462 J-3.031 E.02231
G1 X129.558 Y148.16 E.64372
G1 X129.558 Y148.807 E.02338
G1 X116.313 Y135.562 E.67681
G1 X115.666 Y135.562 E.0234
G1 X129.558 Y149.454 E.7099
G1 X129.558 Y150.101 E.02338
G1 X115.018 Y135.561 E.74299
G1 X114.371 Y135.561 E.0234
G1 X129.558 Y150.748 E.77607
G1 X129.558 Y151.394 E.02338
G1 X113.723 Y135.56 E.80916
G1 X113.076 Y135.559 E.0234
G1 X129.547 Y152.03 E.84167
G3 X129.472 Y152.602 I-1.815 J.054 E.02094
G1 X112.429 Y135.559 E.87093
G1 X111.781 Y135.558 E.0234
G1 X129.3 Y153.077 E.89523
G1 X129.047 Y153.471 E.01692
G1 X111.134 Y135.558 E.9154
G1 X110.486 Y135.557 E.0234
G1 X128.724 Y153.795 E.93197
G1 X128.33 Y154.048 E.01692
G1 X109.839 Y135.557 E.94493
G1 X109.191 Y135.556 E.0234
G1 X127.855 Y154.22 E.95376
M73 P5 R17
G3 X127.284 Y154.295 I-.519 J-1.74 E.02093
G1 X108.668 Y135.68 E.95128
G1 X108.668 Y136.327 E.02338
G1 X126.647 Y154.306 E.91875
G1 X126 Y154.306 E.02337
G1 X108.668 Y136.974 E.8857
G1 X108.668 Y137.62 E.02338
G1 X125.353 Y154.306 E.85264
G1 X124.706 Y154.306 E.02337
G1 X108.668 Y138.267 E.81958
G1 X108.668 Y138.914 E.02338
G1 X124.059 Y154.306 E.78653
G1 X123.413 Y154.306 E.02337
G1 X108.668 Y139.561 E.75347
G1 X108.668 Y140.208 E.02338
G1 X122.766 Y154.306 E.72041
G1 X122.119 Y154.306 E.02337
G1 X108.668 Y140.855 E.68736
G1 X108.668 Y141.502 E.02338
G1 X121.472 Y154.306 E.6543
G1 X120.825 Y154.306 E.02337
G1 X108.668 Y142.149 E.62124
G1 X108.668 Y142.796 E.02338
G1 X120.178 Y154.306 E.58819
G1 X119.531 Y154.306 E.02337
G1 X108.668 Y143.443 E.55513
M73 P5 R16
G1 X108.668 Y144.089 E.02338
G1 X118.884 Y154.306 E.52207
G1 X118.238 Y154.306 E.02337
G1 X108.668 Y144.736 E.48902
G1 X108.668 Y145.383 E.02338
G1 X117.591 Y154.306 E.45596
G1 X116.944 Y154.306 E.02337
G1 X108.668 Y146.03 E.4229
G1 X108.668 Y146.677 E.02338
G1 X116.297 Y154.306 E.38985
G1 X115.65 Y154.306 E.02337
G1 X108.668 Y147.324 E.35679
G1 X108.668 Y147.971 E.02338
G1 X115.003 Y154.306 E.32373
G1 X114.356 Y154.306 E.02337
G1 X108.668 Y148.618 E.29068
G1 X108.668 Y149.265 E.02338
G1 X113.709 Y154.306 E.25762
G1 X113.062 Y154.306 E.02337
G1 X108.668 Y149.912 E.22456
G1 X108.668 Y150.559 E.02338
G1 X112.416 Y154.306 E.19151
G1 X111.769 Y154.306 E.02337
G1 X108.668 Y151.205 E.15845
G1 X108.668 Y151.852 E.02338
G1 X111.122 Y154.306 E.12539
G1 X110.475 Y154.306 E.02337
G1 X108.668 Y152.499 E.09234
G1 X108.668 Y153.146 E.02338
G1 X109.828 Y154.306 E.05928
G1 X109.181 Y154.306 E.02337
G1 X108.462 Y153.587 E.03674
G1 E-.8 F2400
;WIPE_START
G1 F3600
G1 X109.181 Y154.306
G1 X109.828 Y154.306
G1 X109.59 Y154.068
;WIPE_END
G1 X114.652 Y148.356 Z.6 F30000
G1 X150.794 Y107.574 Z.6
G1 Z.2
G1 E.8 F2400
;TYPE:Gap infill
;WIDTH:0.151574
G1 F3600
G1 X150.685 Y107.428 E.00157
;WIDTH:0.196412
G1 X150.575 Y107.282 E.00222
;WIDTH:0.241249
G1 X150.465 Y107.136 E.00287
;WIDTH:0.286087
G1 X150.355 Y106.989 E.00351
;WIDTH:0.32185
G1 X150.148 Y106.763 E.00676
;WIDTH:0.335546
G2 X149.483 Y106.126 I-3.608 J3.098 E.02131
;WIDTH:0.272521
G1 X149.356 Y106.032 E.00287
;WIDTH:0.225077
G1 X149.228 Y105.938 E.00228
;WIDTH:0.177633
G1 X149.101 Y105.844 E.00169
;WIDTH:0.130189
G1 X148.973 Y105.75 E.00109
;WIDTH:0.106467
G1 X148.934 Y105.727 E.00023
