; HEADER_BLOCK_START
; generated by Creality_Print V5.1.7.10471 on 2024-11-12 at 19:00:36
; total layer number: 200
; filament_density: 1.24
; filament_diameter: 1.75
; max_z_height: 20.00
; HEADER_BLOCK_END

; MINX = 29.25
; MINY = 114.25
; MINZ = 0.00
; MAXX = 230.75
; MAXY = 145.75
; MAXZ = 20.00

; THUMBNAIL_BLOCK_START

;
; THUMBNAIL_BLOCK_END

; THUMBNAIL_BLOCK_START

;
; THUMBNAIL_BLOCK_END

; external perimeters extrusion width = 0.42mm
; perimeters extrusion width = 0.45mm
; infill extrusion width = 0.45mm
; solid infill extrusion width = 0.42mm
; top infill extrusion width = 0.42mm
; first layer extrusion width = 0.55mm

; EXECUTABLE_BLOCK_START
EXCLUDE_OBJECT_DEFINE NAME=High_speed_testing.stl_id_0_copy_0 CENTER=130,130 POLYGON=[[29.25,120],[29.3208,119.101],[29.5314,118.223],[29.8767,117.39],[30.3482,116.62],[30.9341,115.934],[31.6202,115.348],[32.3896,114.877],[33.2232,114.531],[34.1005,114.321],[35,114.25],[225,114.25],[225.9,114.321],[226.777,114.531],[227.61,114.877],[228.38,115.348],[229.066,115.934],[229.652,116.62],[230.123,117.39],[230.469,118.223],[230.679,119.101],[230.75,120],[230.75,140],[230.679,140.899],[230.469,141.777],[230.123,142.61],[229.652,143.38],[229.066,144.066],[228.38,144.652],[227.61,145.123],[226.777,145.469],[225.9,145.679],[225,145.75],[35,145.75],[34.1005,145.679],[33.2232,145.469],[32.3896,145.123],[31.6202,144.652],[30.9341,144.066],[30.3482,143.38],[29.8767,142.61],[29.5314,141.777],[29.3208,140.899],[29.25,140],[29.25,120]]
M73 P0 R24
;TYPE:Custom
M140 S0
M104 S0 
START_PRINT EXTRUDER_TEMP=220 BED_TEMP=60
T0
M204 S2000
G1 Z3 F600
M83
G92 E0
G1 Z1 F600
G90
G21
M83 ; use relative distances for extrusion
; filament start gcode
 
M104 S220
SET_PRESSURE_ADVANCE ADVANCE=0.04; Override pressure advance value
M106 S0
;LAYER_CHANGE
;Z:0.2
;HEIGHT:0.2
;BEFORE_LAYER_CHANGE
;0.2
G92 E0

G1 Z.2 F30000
;AFTER_LAYER_CHANGE
;0.2
;_SET_FAN_SPEED_CHANGING_LAYER
SET_VELOCITY_LIMIT ACCEL=2000 ACCEL_TO_DECEL=500
SET_VELOCITY_LIMIT SQUARE_CORNER_VELOCITY=12
; printing object High speed testing.stl id:0 copy 0
G1 E-.8 F2400
EXCLUDE_OBJECT_START NAME=High_speed_testing.stl_id_0_copy_0
G1 X32.064 Y109.754 F30000
G1 E.8 F2400
;TYPE:Brim
;WIDTH:0.55
G1 F3600
G1 X32.937 Y109.543 E.03597
G1 X33.701 Y109.421 E.03101
G1 X35.001 Y109.333 E.05217
G1 X225.003 Y109.333 E7.61066
G1 X225.391 Y109.348 E.01555
G1 X226.271 Y109.418 E.03537
G1 X227.027 Y109.537 E.03066
G1 X227.905 Y109.745 E.03615
G1 X228.647 Y109.985 E.03122
G1 X229.477 Y110.327 E.03597
G1 X230.169 Y110.679 E.03108
G1 X230.935 Y111.147 E.03597
G1 X231.563 Y111.602 E.03108
G1 X232.247 Y112.184 E.03597
G1 X232.796 Y112.732 E.03107
G1 X233.38 Y113.414 E.03597
G1 X233.837 Y114.041 E.03108
G1 X234.307 Y114.806 E.03597
G1 X234.66 Y115.497 E.03107
G1 X235.003 Y116.322 E.03579
G1 X235.243 Y117.056 E.03092
G1 X235.456 Y117.933 E.03615
G1 X235.579 Y118.703 E.03123
G1 X235.651 Y119.603 E.03617
G1 X235.667 Y119.997 E.01581
G1 X235.667 Y139.992 E.80089
G1 X235.582 Y141.275 E.05153
G1 X235.462 Y142.035 E.03082
G1 X235.254 Y142.909 E.03597
G1 X235.015 Y143.647 E.03107
G1 X234.672 Y144.477 E.03597
G1 X234.321 Y145.169 E.03107
G1 X233.853 Y145.935 E.03597
G1 X233.398 Y146.563 E.03108
G1 X232.816 Y147.247 E.03597
G1 X232.268 Y147.796 E.03107
G1 X231.586 Y148.38 E.03597
G1 X230.959 Y148.837 E.03108
G1 X230.194 Y149.307 E.03597
G1 X229.503 Y149.66 E.03107
G1 X228.674 Y150.005 E.03597
G1 X227.936 Y150.246 E.03107
G1 X227.063 Y150.457 E.03597
G1 X226.299 Y150.579 E.03101
G1 X224.999 Y150.667 E.05217
G1 X203.005 Y150.667 E.88099
G1 X202.599 Y150.651 E.0163
G1 X201.66 Y150.573 E.03774
G1 X200.859 Y150.44 E.0325
G1 X199.943 Y150.209 E.03786
G1 X199.17 Y149.945 E.03271
G1 X198.304 Y149.567 E.03786
G1 X197.585 Y149.179 E.03271
G1 X196.793 Y148.664 E.03786
G1 X196.155 Y148.168 E.03239
G1 X196.007 Y148.115 E.0063
G1 X195.843 Y148.168 E.00689
G1 X195.231 Y148.646 E.0311
G1 X194.441 Y149.164 E.03786
G1 X193.723 Y149.554 E.0327
G1 X192.862 Y149.933 E.03767
G1 X192.094 Y150.198 E.03255
G1 X191.174 Y150.433 E.03804
G1 X190.365 Y150.57 E.03286
G1 X189.418 Y150.649 E.03807
G1 X189.003 Y150.667 E.01665
G1 X161.009 Y150.667 E1.12132
G1 X159.658 Y150.573 E.05424
G1 X158.859 Y150.44 E.03243
G1 X157.943 Y150.209 E.03786
G1 X157.17 Y149.945 E.03271
G1 X156.304 Y149.567 E.03786
G1 X155.585 Y149.179 E.0327
G1 X154.793 Y148.664 E.03786
G1 X154.155 Y148.168 E.03239
G1 X154.007 Y148.115 E.0063
G1 X153.843 Y148.168 E.00689
G1 X153.231 Y148.646 E.0311
G1 X152.441 Y149.164 E.03786
G1 X151.723 Y149.554 E.0327
G1 X150.862 Y149.933 E.03767
G1 X150.094 Y150.198 E.03255
G1 X149.174 Y150.433 E.03804
G1 X148.365 Y150.57 E.03286
G1 X147.418 Y150.649 E.03807
G1 X147.003 Y150.667 E.01665
G1 X119.009 Y150.667 E1.12132
G1 X117.658 Y150.573 E.05424
G1 X116.859 Y150.44 E.03243
G1 X115.943 Y150.209 E.03786
G1 X115.17 Y149.945 E.03271
G1 X114.304 Y149.567 E.03786
G1 X113.585 Y149.179 E.03271
G1 X112.793 Y148.664 E.03786
G1 X112.155 Y148.168 E.03239
G1 X112.007 Y148.115 E.0063
G1 X111.843 Y148.168 E.00689
G1 X111.231 Y148.646 E.0311
G1 X110.441 Y149.164 E.03786
G1 X109.723 Y149.554 E.0327
G1 X108.862 Y149.933 E.03767
G1 X108.094 Y150.198 E.03255
G1 X107.174 Y150.433 E.03804
G1 X106.365 Y150.57 E.03286
G1 X105.418 Y150.649 E.03807
G1 X105.003 Y150.667 E.01665
G1 X77.009 Y150.667 E1.12132
G1 X75.658 Y150.573 E.05424
G1 X74.859 Y150.44 E.03243
G1 X73.943 Y150.209 E.03786
G1 X73.17 Y149.945 E.03271
G1 X72.304 Y149.567 E.03786
G1 X71.585 Y149.179 E.03271
G1 X70.793 Y148.664 E.03786
G1 X70.154 Y148.168 E.0324
G1 X70.006 Y148.115 E.0063
G1 X69.843 Y148.168 E.00689
G1 X69.238 Y148.641 E.03074
G1 X68.444 Y149.162 E.03804
G1 X67.723 Y149.554 E.03286
G1 X66.858 Y149.935 E.03786
G1 X66.086 Y150.201 E.03271
G1 X65.17 Y150.434 E.03786
G1 X64.365 Y150.57 E.03271
G1 X63.418 Y150.649 E.03807
G1 X63.003 Y150.667 E.01664
G1 X35.005 Y150.667 E1.12148
G1 X34.619 Y150.652 E.01549
G1 X33.726 Y150.582 E.03586
G1 X32.965 Y150.462 E.03088
G1 X32.091 Y150.254 E.03597
G1 X31.353 Y150.015 E.03107
G1 X30.523 Y149.673 E.03597
G1 X29.831 Y149.321 E.03107
G1 X29.065 Y148.853 E.03597
G1 X28.437 Y148.398 E.03108
G1 X27.753 Y147.816 E.03597
G1 X27.204 Y147.268 E.03107
G1 X26.62 Y146.586 E.03597
G1 X26.163 Y145.959 E.03107
G1 X25.693 Y145.194 E.03597
G1 X25.34 Y144.503 E.03107
G1 X24.995 Y143.674 E.03597
G1 X24.754 Y142.936 E.03107
G1 X24.543 Y142.063 E.03597
G1 X24.421 Y141.299 E.03101
G1 X24.333 Y139.999 E.05217
G1 X24.333 Y120.008 E.80075
G1 X24.418 Y118.725 E.05154
G1 X24.538 Y117.965 E.03082
G1 X24.746 Y117.091 E.03597
G1 X24.985 Y116.353 E.03107
G1 X25.327 Y115.523 E.03597
G1 X25.679 Y114.831 E.03107
G1 X26.147 Y114.065 E.03597
G1 X26.602 Y113.437 E.03107
G1 X27.184 Y112.753 E.03597
G1 X27.732 Y112.204 E.03107
G1 X28.414 Y111.62 E.03597
G1 X29.041 Y111.163 E.03107
G1 X29.806 Y110.693 E.03597
G1 X30.497 Y110.34 E.03107
G1 X31.326 Y109.995 E.03597
G1 X32.026 Y109.766 E.02947
G1 E-.8 F2400
;WIPE_START
G1 F3600
G1 X32.937 Y109.543
G1 X33.701 Y109.421
G1 X33.988 Y109.402
;WIPE_END
G1 X32.183 Y110.248 F30000
G1 E.8 F2400
G1 F3600
G1 X32.196 Y110.244 E.00055
G1 X33.03 Y110.042 E.03437
G1 X33.752 Y109.927 E.02925
G1 X35.023 Y109.84 E.05105
G1 X224.996 Y109.84 E7.60949
G1 X226.206 Y109.921 E.04857
G1 X226.935 Y110.036 E.02956
G1 X227.774 Y110.236 E.03456
G1 X228.477 Y110.464 E.02962
G1 X229.26 Y110.786 E.03389
G1 X229.926 Y111.125 E.02996
G1 X230.659 Y111.573 E.03437
G1 X231.254 Y112.005 E.02948
G1 X231.898 Y112.554 E.0339
G1 X232.42 Y113.073 E.02947
G1 X232.978 Y113.724 E.03437
G1 X233.419 Y114.329 E.02996
G1 X233.868 Y115.06 E.03437
G1 X234.202 Y115.716 E.02947
G1 X234.525 Y116.493 E.03372
G1 X234.757 Y117.2 E.02981
G1 X234.959 Y118.039 E.03455
G1 X235.076 Y118.771 E.02969
G1 X235.16 Y120.01 E.04976
G1 X235.16 Y139.97 E.79948
G1 X235.076 Y141.226 E.05042
G1 X234.963 Y141.943 E.02908
G1 X234.763 Y142.777 E.03438
G1 X234.536 Y143.477 E.02948
G1 X234.209 Y144.271 E.03437
G1 X233.875 Y144.926 E.02947
G1 X233.434 Y145.648 E.03389
G1 X232.995 Y146.254 E.02996
G1 X232.446 Y146.898 E.0339
G1 X231.918 Y147.428 E.02995
G1 X231.276 Y147.978 E.03389
G1 X230.681 Y148.412 E.02948
G1 X229.95 Y148.862 E.03437
G1 X229.295 Y149.197 E.02948
G1 X228.503 Y149.527 E.03437
G1 X227.804 Y149.756 E.02948
G1 X226.97 Y149.958 E.03437
G1 X226.248 Y150.073 E.02925
G1 X224.977 Y150.16 E.05104
G1 X203.019 Y150.16 E.87955
G1 X202.627 Y150.144 E.01571
G1 X201.728 Y150.07 E.03612
G1 X200.969 Y149.944 E.03083
G1 X200.093 Y149.724 E.03618
G1 X199.36 Y149.474 E.03102
G1 X198.532 Y149.113 E.03618
G1 X197.85 Y148.746 E.03103
G1 X197.093 Y148.254 E.03618
G1 X196.475 Y147.775 E.03131
G1 X196.192 Y147.643 E.01251
G1 X195.984 Y147.611 E.00841
G1 X195.693 Y147.685 E.01203
G1 X195.521 Y147.777 E.00782
G1 X194.93 Y148.237 E.02998
G1 X194.175 Y148.731 E.03618
G1 X193.494 Y149.101 E.03102
G1 X192.671 Y149.462 E.03599
G1 X191.942 Y149.713 E.03088
G1 X191.063 Y149.938 E.03636
G1 X190.295 Y150.067 E.03117
G1 X189.389 Y150.143 E.03641
G1 X188.989 Y150.16 E.01605
G1 X161.032 Y150.16 E1.11984
M73 P1 R24
G1 X159.725 Y150.069 E.05249
G1 X158.969 Y149.944 E.03067
G1 X158.093 Y149.724 E.03618
G1 X157.36 Y149.474 E.03103
G1 X156.532 Y149.113 E.03618
G1 X155.85 Y148.746 E.03102
G1 X155.093 Y148.254 E.03618
G1 X154.475 Y147.775 E.03132
G1 X154.192 Y147.643 E.01251
G1 X153.984 Y147.611 E.00841
G1 X153.693 Y147.685 E.01203
G1 X153.521 Y147.777 E.00782
G1 X152.93 Y148.237 E.02998
G1 X152.175 Y148.731 E.03618
G1 X151.494 Y149.101 E.03102
G1 X150.671 Y149.462 E.03599
G1 X149.942 Y149.713 E.03088
G1 X149.063 Y149.938 E.03636
G1 X148.295 Y150.067 E.03117
G1 X147.389 Y150.143 E.03641
G1 X146.989 Y150.16 E.01605
G1 X119.032 Y150.16 E1.11984
G1 X117.725 Y150.069 E.05249
G1 X116.969 Y149.944 E.03067
G1 X116.093 Y149.724 E.03618
G1 X115.36 Y149.474 E.03102
G1 X114.532 Y149.113 E.03618
G1 X113.85 Y148.746 E.03102
G1 X113.093 Y148.254 E.03618
G1 X112.475 Y147.775 E.03131
G1 X112.192 Y147.643 E.01251
G1 X111.984 Y147.611 E.00841
G1 X111.693 Y147.685 E.01203
G1 X111.521 Y147.777 E.00782
G1 X110.93 Y148.237 E.02998
G1 X110.175 Y148.731 E.03618
G1 X109.494 Y149.101 E.03102
G1 X108.671 Y149.462 E.03599
G1 X107.942 Y149.713 E.03088
G1 X107.063 Y149.938 E.03636
G1 X106.295 Y150.067 E.03117
G1 X105.389 Y150.143 E.03641
G1 X104.989 Y150.16 E.01605
G1 X77.032 Y150.16 E1.11984
G1 X75.725 Y150.069 E.05249
G1 X74.969 Y149.944 E.03067
G1 X74.093 Y149.724 E.03618
G1 X73.36 Y149.474 E.03102
G1 X72.532 Y149.113 E.03618
G1 X71.85 Y148.746 E.03103
G1 X71.093 Y148.254 E.03618
G1 X70.475 Y147.774 E.03133
G1 X70.192 Y147.642 E.01251
G1 X69.984 Y147.611 E.00841
G1 X69.693 Y147.685 E.01204
G1 X69.52 Y147.777 E.00783
G1 X68.937 Y148.232 E.02963
G1 X68.178 Y148.729 E.03636
G1 X67.494 Y149.101 E.03117
G1 X66.667 Y149.464 E.03617
G1 X65.935 Y149.716 E.03103
G1 X65.059 Y149.939 E.03618
G1 X64.295 Y150.067 E.03102
G1 X63.389 Y150.143 E.03642
G1 X62.989 Y150.16 E.01605
G1 X35.018 Y150.16 E1.12041
G1 X34.651 Y150.146 E.01469
G1 X33.791 Y150.079 E.03455
G1 X33.069 Y149.965 E.02929
G1 X32.234 Y149.767 E.03438
G1 X31.523 Y149.536 E.02996
G1 X30.729 Y149.209 E.03437
G1 X30.074 Y148.875 E.02948
G1 X29.351 Y148.434 E.0339
G1 X28.746 Y147.995 E.02996
G1 X28.102 Y147.446 E.03389
G1 X27.572 Y146.918 E.02996
G1 X27.014 Y146.266 E.03437
G1 X26.581 Y145.671 E.02948
G1 X26.132 Y144.94 E.03437
G1 X25.798 Y144.284 E.02948
G1 X25.469 Y143.492 E.03437
G1 X25.241 Y142.792 E.02948
G1 X25.042 Y141.97 E.03389
G1 X24.927 Y141.248 E.02925
G1 X24.84 Y139.977 E.05104
G1 X24.84 Y120.03 E.79898
G1 X24.924 Y118.774 E.05042
G1 X25.037 Y118.057 E.02907
G1 X25.237 Y117.223 E.03438
G1 X25.464 Y116.523 E.02948
G1 X25.791 Y115.729 E.03437
G1 X26.125 Y115.074 E.02948
G1 X26.566 Y114.351 E.03389
G1 X27.005 Y113.746 E.02996
G1 X27.554 Y113.102 E.03389
G1 X28.082 Y112.572 E.02996
G1 X28.724 Y112.022 E.0339
G1 X29.319 Y111.588 E.02948
G1 X30.05 Y111.138 E.03437
G1 X30.705 Y110.803 E.02948
G1 X31.497 Y110.473 E.03437
G1 X32.145 Y110.261 E.02732
G1 E-.8 F2400
;WIPE_START
G1 F3600
G1 X32.196 Y110.244
G1 X33.03 Y110.042
G1 X33.752 Y109.927
G1 X34.109 Y109.902
;WIPE_END
G1 X32.303 Y110.743 F30000
G1 E.8 F2400
G1 F3600
G1 X32.329 Y110.734 E.0011
G1 X33.125 Y110.541 E.03278
G1 X33.802 Y110.432 E.02749
G1 X35.045 Y110.347 E.04991
G1 X224.974 Y110.347 E7.60771
M73 P1 R23
G1 X226.143 Y110.425 E.04691
G1 X226.842 Y110.535 E.02836
G1 X227.643 Y110.726 E.03297
G1 X228.308 Y110.942 E.02802
G1 X229.042 Y111.245 E.03182
G1 X229.684 Y111.571 E.02883
G1 X230.382 Y111.998 E.03277
G1 X230.945 Y112.408 E.02789
G1 X231.55 Y112.923 E.03184
G1 X232.043 Y113.414 E.02788
G1 X232.576 Y114.035 E.03277
G1 X233 Y114.616 E.02884
G1 X233.428 Y115.314 E.03277
G1 X233.744 Y115.934 E.02788
G1 X234.047 Y116.664 E.03166
G1 X234.27 Y117.345 E.02869
G1 X234.463 Y118.144 E.03295
G1 X234.572 Y118.835 E.028
G1 X234.653 Y120.033 E.04809
G1 X234.653 Y139.948 E.79771
G1 X234.571 Y141.176 E.0493
G1 X234.464 Y141.85 E.02733
G1 X234.273 Y142.646 E.03279
G1 X234.058 Y143.308 E.02788
G1 X233.745 Y144.064 E.03278
G1 X233.429 Y144.684 E.02788
G1 X233.015 Y145.362 E.03183
G1 X232.592 Y145.945 E.02884
G1 X232.077 Y146.55 E.03182
G1 X231.569 Y147.06 E.02883
G1 X230.965 Y147.576 E.03183
G1 X230.403 Y147.987 E.02789
G1 X229.707 Y148.416 E.03278
G1 X229.087 Y148.734 E.02788
G1 X228.332 Y149.049 E.03278
G1 X227.671 Y149.266 E.02788
G1 X226.875 Y149.459 E.03278
G1 X226.198 Y149.568 E.02749
G1 X224.955 Y149.653 E.04991
G1 X203.032 Y149.653 E.87811
G1 X202.655 Y149.638 E.01513
G1 X201.797 Y149.567 E.0345
G1 X201.078 Y149.449 E.02916
G1 X200.243 Y149.239 E.03451
G1 X199.549 Y149.003 E.02934
G1 X198.76 Y148.659 E.0345
G1 X198.114 Y148.312 E.02934
G1 X197.392 Y147.843 E.0345
G1 X196.682 Y147.312 E.03555
G1 X196.416 Y147.188 E.01173
G1 X196.257 Y147.139 E.00668
G1 X196.075 Y147.112 E.00737
G1 X195.845 Y147.123 E.00921
G1 X195.449 Y147.241 E.01657
G1 X195.2 Y147.383 E.01146
G1 X194.63 Y147.827 E.02896
G1 X193.909 Y148.299 E.0345
G1 X193.265 Y148.647 E.02934
G1 X192.48 Y148.992 E.03431
G1 X191.791 Y149.229 E.0292
G1 X190.952 Y149.442 E.03469
G1 X190.226 Y149.564 E.02949
G1 X189.361 Y149.637 E.03477
G1 X188.975 Y149.653 E.01545
G1 X161.055 Y149.653 E1.11837
G1 X159.791 Y149.565 E.05076
G1 X159.078 Y149.449 E.02892
G1 X158.243 Y149.239 E.03451
G1 X157.549 Y149.003 E.02934
G1 X156.76 Y148.659 E.0345
G1 X156.114 Y148.313 E.02934
G1 X155.392 Y147.843 E.0345
G1 X154.682 Y147.312 E.03555
G1 X154.416 Y147.188 E.01173
G1 X154.257 Y147.139 E.00668
G1 X154.075 Y147.112 E.00737
G1 X153.845 Y147.123 E.00921
G1 X153.449 Y147.241 E.01657
G1 X153.2 Y147.383 E.01146
G1 X152.63 Y147.827 E.02896
G1 X151.909 Y148.299 E.0345
G1 X151.265 Y148.647 E.02934
G1 X150.48 Y148.992 E.03432
G1 X149.791 Y149.229 E.0292
G1 X148.952 Y149.442 E.03469
G1 X148.226 Y149.564 E.02949
G1 X147.361 Y149.637 E.03477
G1 X146.975 Y149.653 E.01545
G1 X119.055 Y149.653 E1.11837
G1 X117.791 Y149.565 E.05076
G1 X117.078 Y149.449 E.02892
G1 X116.243 Y149.239 E.03451
G1 X115.549 Y149.003 E.02934
G1 X114.76 Y148.659 E.0345
G1 X114.114 Y148.312 E.02934
G1 X113.392 Y147.843 E.0345
G1 X112.682 Y147.312 E.03555
G1 X112.416 Y147.188 E.01173
G1 X112.257 Y147.139 E.00668
G1 X112.075 Y147.112 E.00737
G1 X111.845 Y147.123 E.00921
G1 X111.449 Y147.241 E.01657
G1 X111.2 Y147.383 E.01146
G1 X110.63 Y147.827 E.02896
G1 X109.909 Y148.299 E.0345
G1 X109.265 Y148.647 E.02934
G1 X108.48 Y148.992 E.03431
G1 X107.791 Y149.229 E.0292
G1 X106.952 Y149.442 E.03469
G1 X106.226 Y149.564 E.02949
G1 X105.361 Y149.637 E.03477
G1 X104.975 Y149.653 E.01545
G1 X77.055 Y149.653 E1.11837
G1 X75.791 Y149.565 E.05076
G1 X75.078 Y149.449 E.02891
G1 X74.243 Y149.239 E.03451
G1 X73.549 Y149.003 E.02934
G1 X72.76 Y148.659 E.0345
G1 X72.114 Y148.313 E.02934
G1 X71.392 Y147.843 E.0345
G1 X70.681 Y147.311 E.03556
G1 X70.416 Y147.187 E.01173
G1 X70.256 Y147.139 E.00668
G1 X70.075 Y147.112 E.00737
G1 X69.845 Y147.123 E.00921
G1 X69.448 Y147.241 E.01658
G1 X69.2 Y147.383 E.01147
G1 X68.636 Y147.822 E.02861
G1 X67.912 Y148.297 E.03469
G1 X67.265 Y148.647 E.02948
G1 X66.476 Y148.993 E.03449
G1 X65.783 Y149.231 E.02935
