; HEADER_BLOCK_START
; generated by Creality_Print V5.1.7.10471 on 2024-11-26 at 17:49:54
; total layer number: 201
; filament_density: 1.24
; filament_diameter: 1.75
; max_z_height: 40.20
; HEADER_BLOCK_END

; MINX = 119.05
; MINY = 119.05
; MINZ = 0.00
; MAXX = 140.95
; MAXY = 140.95
; MAXZ = 40.13

; THUMBNAIL_BLOCK_START

;
; THUMBNAIL_BLOCK_END

; THUMBNAIL_BLOCK_START

;
; THUMBNAIL_BLOCK_END

; external perimeters extrusion width = 0.42mm
; perimeters extrusion width = 0.45mm
; infill extrusion width = 0.45mm
; solid infill extrusion width = 0.42mm
; top infill extrusion width = 0.42mm
; support material extrusion width = 0.40mm
; first layer extrusion width = 0.50mm

; EXECUTABLE_BLOCK_START
EXCLUDE_OBJECT_DEFINE NAME=F018-SJ-045_旋转件（3.15）.stl_id_0_copy_0 CENTER=130,130 POLYGON=[[119.05,130],[119.052,129.766],[119.06,129.532],[119.072,129.298],[119.09,129.065],[119.112,128.832],[119.14,128.6],[119.172,128.368],[119.21,128.137],[119.252,127.907],[119.299,127.678],[119.351,127.45],[119.408,127.222],[119.47,126.997],[119.536,126.772],[119.608,126.55],[119.684,126.328],[119.765,126.109],[119.85,125.891],[119.94,125.675],[120.035,125.461],[120.134,125.249],[120.238,125.039],[120.346,124.832],[120.459,124.627],[120.576,124.424],[120.697,124.224],[120.823,124.026],[120.953,123.832],[121.087,123.64],[121.224,123.451],[121.366,123.265],[121.512,123.082],[121.662,122.902],[121.816,122.725],[121.973,122.552],[122.134,122.382],[122.299,122.216],[122.467,122.053],[122.638,121.894],[122.813,121.738],[122.991,121.587],[123.173,121.439],[123.357,121.295],[123.545,121.155],[123.735,121.019],[123.929,120.887],[124.125,120.76],[124.324,120.636],[124.525,120.517],[124.729,120.402],[124.935,120.292],[125.144,120.186],[125.355,120.084],[125.568,119.987],[125.783,119.895],[125.999,119.807],[126.218,119.724],[126.439,119.645],[126.661,119.572],[126.884,119.503],[127.109,119.438],[127.336,119.379],[127.563,119.325],[127.792,119.275],[128.022,119.23],[128.252,119.19],[128.484,119.155],[128.716,119.125],[128.948,119.101],[129.182,119.081],[129.415,119.066],[129.649,119.056],[129.883,119.051],[130.117,119.051],[130.351,119.056],[130.585,119.066],[130.818,119.081],[131.051,119.101],[131.284,119.125],[131.516,119.155],[131.748,119.19],[131.978,119.23],[132.208,119.275],[132.437,119.325],[132.664,119.379],[132.891,119.438],[133.116,119.503],[133.339,119.572],[133.561,119.645],[133.782,119.724],[134,119.807],[134.217,119.895],[134.432,119.987],[134.645,120.084],[134.856,120.186],[135.065,120.292],[135.271,120.402],[135.475,120.517],[135.676,120.636],[135.875,120.76],[136.071,120.887],[136.265,121.019],[136.455,121.155],[136.643,121.295],[136.827,121.439],[137.009,121.587],[137.187,121.738],[137.362,121.894],[137.533,122.053],[137.701,122.216],[137.866,122.382],[138.027,122.552],[138.184,122.725],[138.338,122.902],[138.488,123.082],[138.633,123.265],[138.775,123.451],[138.913,123.64],[139.047,123.832],[139.177,124.026],[139.303,124.224],[139.424,124.424],[139.541,124.627],[139.654,124.832],[139.762,125.039],[139.866,125.249],[139.965,125.461],[140.06,125.675],[140.15,125.891],[140.235,126.109],[140.316,126.328],[140.392,126.55],[140.463,126.772],[140.53,126.997],[140.592,127.222],[140.649,127.45],[140.701,127.678],[140.748,127.907],[140.79,128.137],[140.828,128.368],[140.86,128.6],[140.887,128.832],[140.91,129.065],[140.927,129.298],[140.94,129.532],[140.947,129.766],[140.95,130],[140.947,130.234],[140.94,130.468],[140.927,130.702],[140.91,130.935],[140.887,131.168],[140.86,131.4],[140.828,131.632],[140.79,131.863],[140.748,132.093],[140.701,132.322],[140.649,132.55],[140.592,132.777],[140.53,133.003],[140.463,133.228],[140.392,133.45],[140.316,133.672],[140.235,133.891],[140.15,134.109],[140.06,134.325],[139.965,134.539],[139.866,134.751],[139.762,134.961],[139.654,135.168],[139.541,135.373],[139.424,135.576],[139.303,135.776],[139.177,135.974],[139.047,136.168],[138.913,136.36],[138.775,136.549],[138.633,136.735],[138.488,136.918],[138.338,137.098],[138.184,137.275],[138.027,137.448],[137.866,137.618],[137.701,137.784],[137.533,137.947],[137.362,138.106],[137.187,138.261],[137.009,138.413],[136.827,138.561],[136.643,138.705],[136.455,138.845],[136.265,138.981],[136.071,139.113],[135.875,139.24],[135.676,139.364],[135.475,139.483],[135.271,139.598],[135.065,139.708],[134.856,139.814],[134.645,139.916],[134.432,140.013],[134.217,140.105],[134,140.193],[133.782,140.276],[133.561,140.355],[133.339,140.428],[133.116,140.497],[132.891,140.562],[132.664,140.621],[132.437,140.675],[132.208,140.725],[131.978,140.77],[131.748,140.81],[131.516,140.844],[131.284,140.874],[131.051,140.899],[130.818,140.919],[130.585,140.934],[130.351,140.944],[130.117,140.949],[129.883,140.949],[129.649,140.944],[129.415,140.934],[129.182,140.919],[128.948,140.899],[128.716,140.874],[128.484,140.844],[128.252,140.81],[128.022,140.77],[127.792,140.725],[127.563,140.675],[127.336,140.621],[127.109,140.562],[126.884,140.497],[126.661,140.428],[126.439,140.355],[126.218,140.276],[125.999,140.193],[125.783,140.105],[125.568,140.013],[125.355,139.916],[125.144,139.814],[124.935,139.708],[124.729,139.598],[124.525,139.483],[124.324,139.364],[124.125,139.24],[123.929,139.113],[123.735,138.981],[123.545,138.845],[123.357,138.705],[123.173,138.561],[122.991,138.413],[122.813,138.261],[122.638,138.106],[122.467,137.947],[122.299,137.784],[122.134,137.618],[121.973,137.448],[121.816,137.275],[121.662,137.098],[121.512,136.918],[121.366,136.735],[121.224,136.549],[121.087,136.36],[120.953,136.168],[120.823,135.974],[120.697,135.776],[120.576,135.576],[120.459,135.373],[120.346,135.168],[120.238,134.961],[120.134,134.751],[120.035,134.539],[119.94,134.325],[119.85,134.109],[119.765,133.891],[119.684,133.672],[119.608,133.45],[119.536,133.228],[119.47,133.003],[119.408,132.777],[119.351,132.55],[119.299,132.322],[119.252,132.093],[119.21,131.863],[119.172,131.632],[119.14,131.4],[119.112,131.168],[119.09,130.935],[119.072,130.702],[119.06,130.468],[119.052,130.234],[119.05,130]]
M73 P0 R32
;TYPE:Custom
M140 S0
M104 S0 
START_PRINT EXTRUDER_TEMP=220 BED_TEMP=60
T0
M204 S2000
G1 Z3 F600
M83
G92 E0
G1 Z1 F600
G90
G21
M83 ; use relative distances for extrusion
; filament start gcode
 
M104 S220
M106 S0
;LAYER_CHANGE
;Z:0.2
;HEIGHT:0.2
;BEFORE_LAYER_CHANGE
;0.2
G92 E0

G1 E-.8 F2400
;AFTER_LAYER_CHANGE
;0.2
;_SET_FAN_SPEED_CHANGING_LAYER
SET_VELOCITY_LIMIT ACCEL=2000 ACCEL_TO_DECEL=500
SET_VELOCITY_LIMIT SQUARE_CORNER_VELOCITY=8
; printing object F018-SJ-045_旋转件（3.15）.stl id:0 copy 0
EXCLUDE_OBJECT_START NAME=F018-SJ-045_旋转件（3.15）.stl_id_0_copy_0
G1 X128.721 Y117.242 F30000
G1 Z.4
G1 Z.2
G1 E.8 F2400
;TYPE:Support
;WIDTH:0.5
G1 F3600
G3 X133.829 Y123.042 I-.33 J5.44 E.3102
G3 X133.664 Y131.327 I3.223 J4.208 E.85897
G2 X126.935 Y127.593 I-3.663 J-1.33 E.39747
G3 X126.047 Y127.216 I.594 J-2.639 E.03502
G1 X125.79 Y127.57 E.01577
G1 X126.512 Y128.26 E.03606
G2 X133.112 Y132.406 I3.514 J1.732 E.41526
G3 X126.389 Y135.756 I-1.695 J5.021 E.90073
G3 X125.228 Y127.229 I-3.719 J-3.836 E.85089
G1 X125.452 Y126.853 E.01578
G3 X128.653 Y117.239 I3.102 J-4.307 E.486
G1 E-.8 F2400
;WIPE_START
G1 F3600
G1 X127.362 Y117.353
G1 X126.715 Y117.63
;WIPE_END
G1 X132.683 Y122.387 Z.6 F30000
G1 X141.681 Y129.559 Z.6
G1 Z.2
G1 E.8 F2400
G1 F3600
G1 X141.681 Y125.508 E.14627
G2 X141.173 Y124.562 I-2.858 J.926 E.03895
G1 X141.173 Y130.03 E.19742
G3 X140.665 Y130.667 I-2.01 J-1.081 E.02958
G1 X140.665 Y123.925 E.24344
G2 X140.157 Y123.445 I-1.577 J1.159 E.02537
G1 X140.157 Y131.148 E.27812
G1 X139.649 Y131.483 E.02197
G1 X139.649 Y123.109 E.30232
G2 X139.142 Y122.844 I-.986 J1.266 E.02081
G1 X139.142 Y131.748 E.32151
G1 X138.634 Y131.965 E.01994
G1 X138.634 Y122.627 E.33718
G2 X138.126 Y122.51 I-.575 J1.341 E.01891
G1 X138.126 Y132.082 E.34559
G3 X137.618 Y132.17 I-.495 J-1.356 E.01871
G1 X137.618 Y122.423 E.35192
G1 X137.11 Y122.4 E.01836
G1 X137.11 Y132.192 E.35356
G3 X136.602 Y132.163 I-.172 J-1.414 E.01847
G1 X136.602 Y122.43 E.35142
G1 X136.094 Y122.499 E.01851
G1 X136.094 Y132.094 E.34644
G3 X135.587 Y131.943 I.162 J-1.475 E.01923
G1 X135.587 Y122.65 E.33554
G2 X135.079 Y122.837 I.262 J1.493 E.01965
G1 X135.079 Y131.755 E.32202
G1 X134.571 Y131.482 E.02082
G1 X134.571 Y123.11 E.30227
G1 X134.063 Y123.384 E.02083
G1 X134.063 Y128.564 E.18702
G2 X133.555 Y127.562 I-4.147 J1.474 E.04065
G1 X133.555 Y123.657 E.14099
G1 X133.35 Y123.768 E.00841
G2 X133.047 Y120.608 I-7.424 J-.883 E.1155
G1 X133.047 Y126.953 E.22909
G2 X132.539 Y126.518 I-3.07 J3.074 E.02416
G1 X132.539 Y119.712 E.24576
G2 X132.031 Y119.104 I-1.927 J1.094 E.02875
G1 X132.031 Y126.199 E.25619
G2 X131.524 Y125.967 I-2.772 J5.384 E.02017
G1 X131.524 Y118.644 E.26438
G1 X131.016 Y118.309 E.02197
G1 X131.016 Y125.812 E.2709
G2 X130.508 Y125.719 I-1.751 J8.103 E.01865
G1 X130.508 Y118.06 E.27653
G2 X130 Y117.856 I-.814 J1.296 E.01986
G1 X129.901 Y125.69 E.28287
G2 X129.492 Y125.721 I.304 J6.723 E.01479
G1 X129.492 Y117.74 E.28814
G2 X128.984 Y117.666 I-.46 J1.36 E.01863
G1 X128.967 Y125.814 E.29421
G2 X128.476 Y125.969 I1.033 J4.13 E.0186
G1 X128.476 Y117.643 E.30062
G2 X127.969 Y117.685 I-.138 J1.418 E.0185
G1 X127.969 Y126.198 E.30737
G2 X127.461 Y126.516 I2.472 J4.517 E.02164
G1 X127.461 Y117.754 E.31635
G2 X126.953 Y117.919 I.198 J1.48 E.01938
G1 X126.953 Y126.951 E.32612
G1 X126.797 Y127.115 E.00817
G3 X126.445 Y126.963 I.243 J-1.048 E.01393
G1 X126.445 Y118.121 E.31928
G1 X125.937 Y118.394 E.02083
G1 X125.916 Y126.697 E.29976
G1 X125.429 Y126.309 E.02247
G1 X125.429 Y118.775 E.27201
G2 X124.921 Y119.262 I1.086 J1.642 E.02553
G1 X124.921 Y125.822 E.23687
G3 X124.413 Y125.154 I1.589 J-1.735 E.03046
G1 X124.413 Y119.93 E.18863
G2 X123.906 Y120.999 I2.691 J1.934 E.04297
G1 X123.906 Y124.671 E.13257
G1 E-.8 F2400
;WIPE_START
G1 F3600
G1 X123.906 Y122.671
;WIPE_END
G1 X128.364 Y128.865 Z.6 F30000
G1 X136.094 Y139.606 Z.6
G1 Z.2
G1 E.8 F2400
G1 F3600
G1 X136.094 Y135.854 E.13549
G2 X135.587 Y134.819 I-6.311 J2.456 E.04166
G1 X135.587 Y140.12 E.19139
G3 X135.079 Y140.783 I-2.08 J-1.068 E.03031
G1 X135.079 Y134.156 E.23925
G1 X134.571 Y133.671 E.02537
G1 X134.571 Y141.269 E.27432
G3 X134.063 Y141.616 I-1.212 J-1.225 E.02234
G1 X134.063 Y133.323 E.29944
G2 X133.555 Y133.043 I-1.025 J1.26 E.02105
G1 X133.555 Y141.896 E.31964
G1 X133.047 Y142.113 E.01994
G1 X133.047 Y133.048 E.32732
G3 X132.539 Y133.481 I-2.997 J-3.002 E.02412
G1 X132.539 Y142.242 E.31632
G3 X132.031 Y142.34 I-.526 J-1.35 E.01878
G1 X132.018 Y133.809 E.30805
G3 X131.524 Y134.033 I-2.682 J-5.249 E.01961
G1 X131.524 Y142.363 E.30077
G3 X131.016 Y142.344 I-.202 J-1.408 E.01845
G1 X131.016 Y134.188 E.29449
G1 X130.79 Y134.237 E.00833
G3 X130.508 Y134.28 I-.521 J-2.459 E.01032
G1 X130.508 Y142.276 E.28868
G3 X130 Y142.136 I.131 J-1.469 E.01912
G1 X129.965 Y134.311 E.28253
G3 X129.492 Y134.28 I.26 J-7.468 E.01713
G1 X129.492 Y141.962 E.27736
G1 X128.984 Y141.688 E.02082
G1 X128.967 Y134.186 E.27089
G3 X128.476 Y134.03 I1.47 J-5.484 E.01857
G1 X128.476 Y141.341 E.26397
G3 X127.969 Y140.9 I.961 J-1.62 E.02442
G1 X127.946 Y133.789 E.25675
G3 X127.461 Y133.483 I2.299 J-4.179 E.02072
G1 X127.461 Y140.301 E.24619
G3 X126.953 Y139.363 I2.331 J-1.868 E.03873
G1 X126.909 Y133.004 E.22961
G3 X126.445 Y132.434 I3.102 J-3.002 E.02656
G1 X126.445 Y135.226 E.10078
G1 X125.937 Y135.561 E.02198
G1 X125.937 Y131.441 E.14875
G3 X125.937 Y128.28 I5.15 J-1.581 E.11586
G1 X125.429 Y127.794 E.02538
G1 X125.429 Y135.897 E.29255
G3 X124.921 Y136.224 I-1.155 J-1.236 E.02193
G1 X124.921 Y127.545 E.31335
G1 X124.413 Y127.328 E.01995
G1 X124.413 Y136.441 E.32904
G3 X123.906 Y136.61 I-.719 J-1.315 E.01943
G1 X123.906 Y127.159 E.34124
G1 X123.398 Y127.043 E.01881
G1 X123.398 Y136.726 E.34962
G3 X122.89 Y136.768 I-.372 J-1.378 E.0185
G1 X122.89 Y127 E.3527
G2 X122.382 Y126.982 I-.303 J1.389 E.01845
G1 X122.382 Y136.786 E.35399
G1 X121.874 Y136.718 E.0185
G1 X121.874 Y127.051 E.34904
G2 X121.366 Y127.152 I.025 J1.45 E.0188
G1 X121.366 Y136.616 E.34173
G1 X120.858 Y136.452 E.01928
G1 X120.858 Y127.317 E.32983
G2 X120.351 Y127.556 I.406 J1.519 E.02038
G1 X120.351 Y136.212 E.31253
G3 X119.843 Y135.918 I.557 J-1.546 E.02131
G1 X119.843 Y127.851 E.29127
G1 X119.335 Y128.255 E.02345
G1 X119.335 Y135.513 E.26204
G3 X118.827 Y134.966 I1.253 J-1.672 E.02709
G1 X118.827 Y128.802 E.22255
G2 X118.319 Y129.562 I1.839 J1.779 E.03317
G1 X118.319 Y134.206 E.16768
G3 X117.811 Y130.217 I6.336 J-2.834 E.14732
G1 E-.8 F2400
;WIPE_START
G1 F3600
G1 X117.811 Y132.217
;WIPE_END
G1 X125.202 Y130.311 Z.6 F30000
G1 X130.143 Y129.036 Z.6
G1 Z.2
G1 E.8 F2400
G1 F3600
G3 X129.336 Y130.712 I-.143 J.963 E.13159
G1 X129.522 Y129.151 E.05676
G3 X130.074 Y129.03 I.505 J.982 E.02065
G1 X130.508 Y130.575 F30000
G1 F3600
G2 X130.446 Y129.658 I-.784 J-.408 E.03489
G2 X130 Y129.439 I-.447 J.346 E.01858
G1 X130 Y130.767 E.04797
G1 E-.8 F2400
;WIPE_START
G1 F3600
G1 X130 Y129.439
G1 X130.446 Y129.658
G1 X130.458 Y129.832
;WIPE_END
G1 X133.919 Y123.029 Z.6 F30000
G1 X134.308 Y122.265 Z.6
G1 Z.2
G1 E.8 F2400
;TYPE:Brim
G1 F3600
G1 X134.244 Y121.546 E.02608
G1 X134.213 Y121.416 E.00483
G1 X134.443 Y121.526 E.00923
G1 X135.084 Y121.901 E.0268
G1 X134.812 Y121.994 E.01038
G1 X134.343 Y122.246 E.01922
G1 E-.8 F2400
;WIPE_START
G1 F3600
G1 X134.244 Y121.546
G1 X134.213 Y121.416
G1 X134.443 Y121.526
G1 X135.084 Y121.901
G1 X134.932 Y121.953
;WIPE_END
G1 X127.869 Y124.847 Z.6 F30000
G1 X124.222 Y126.341 Z.6
G1 Z.2
G1 E.8 F2400
G1 F3600
G1 X123.376 Y126.153 E.03128
G1 X122.382 Y126.109 E.03594
G1 X121.375 Y126.242 E.03667
G1 X121.188 Y126.298 E.00705
G1 X121.336 Y125.938 E.01405
G1 X121.605 Y125.406 E.02152
G1 X121.815 Y125.043 E.01516
G1 X122.177 Y124.49 E.02385
G1 X122.454 Y124.116 E.01681
G1 X122.889 Y123.602 E.02431
G1 X122.972 Y124.056 E.01664
G1 X123.349 Y125.063 E.03884
G1 X123.858 Y125.917 E.03591
G1 X124.196 Y126.31 E.01871
G1 E-.8 F2400
;WIPE_START
G1 F3600
G1 X123.376 Y126.153
G1 X122.382 Y126.109
G1 X122.213 Y126.132
;WIPE_END
G1 X123.07 Y125.586 Z.6 F30000
G1 Z.2
G1 E.8 F2400
G1 F3600
G1 X122.935 Y125.676 E.00583
G1 X122.411 Y125.653 E.01895
G1 X122.23 Y125.668 E.00653
G1 X122.123 Y125.629 E.00413
G1 X122.082 Y125.522 E.00413
G1 X122.103 Y125.458 E.00244
G1 X122.525 Y124.792 E.02845
G1 X122.621 Y124.73 E.00413
G1 X122.731 Y124.762 E.00413
G1 X122.769 Y124.818 E.00244
G1 X122.917 Y125.214 E.01526
G1 X123.061 Y125.472 E.01068
G1 X123.066 Y125.547 E.00269
G1 E-.8 F2400
;WIPE_START
G1 F3600
G1 X122.935 Y125.676
G1 X122.411 Y125.653
G1 X122.23 Y125.668
G1 X122.123 Y125.629
G1 X122.082 Y125.522
G1 X122.103 Y125.458
G1 X122.525 Y124.792
G1 X122.546 Y124.779
;WIPE_END
G1 X126.918 Y128.05 Z.6 F30000
G1 Z.2
G1 E.8 F2400
G1 F3600
G1 X126.948 Y128.05 E.00109
G1 X126.938 Y128.067 E.0007
G1 E-.8 F2400
;WIPE_START
G1 F3600
G1 X126.948 Y128.05
G1 X126.938 Y128.067
;WIPE_END
G1 X133.257 Y131.586 Z.6 F30000
G1 Z.2
M73 P1 R32
G1 E.8 F2400
G1 F3600
G1 X133.271 Y131.562 E.001
G1 X133.323 Y131.64 E.00339
G1 X133.955 Y132.137 E.02905
G1 X134.832 Y132.607 E.03593
G1 X135.836 Y132.933 E.03811
G1 X136.863 Y133.071 E.03742
G1 X137.878 Y133.025 E.03667
G1 X138.869 Y132.803 E.03667
G1 X139.184 Y132.673 E.01232
G1 X138.988 Y133.283 E.02313
G1 X138.72 Y133.939 E.02559
G1 X138.366 Y134.646 E.02854
G1 X138.027 Y135.209 E.02375
G1 X137.599 Y135.815 E.02678
G1 X137.138 Y136.372 E.02608
G1 X136.874 Y135.429 E.03537
G1 X136.433 Y134.513 E.03667
G1 X135.839 Y133.69 E.03667
G1 X135.094 Y132.97 E.03739
G1 X134.214 Y132.385 E.03816
G1 X133.282 Y131.982 E.03667
G1 X133.112 Y131.938 E.00634
G1 X133.06 Y131.941 E.0019
G1 X133.238 Y131.621 E.01321
G1 E-.8 F2400
;WIPE_START
G1 F3600
G1 X133.271 Y131.562
G1 X133.323 Y131.64
G1 X133.955 Y132.137
G1 X134.832 Y132.607
G1 X134.869 Y132.619
;WIPE_END
G1 X136.392 Y133.591 Z.6 F30000
G1 Z.2
G1 E.8 F2400
G1 F3600
G1 X136.464 Y133.502 E.00413
G1 X136.54 Y133.489 E.00278
G1 X136.894 Y133.527 E.01286
G1 X137.888 Y133.482 E.03592
G1 X138.209 Y133.42 E.01182
G1 X138.321 Y133.446 E.00413
G1 X138.363 Y133.606 E.00595
G1 X138.306 Y133.745 E.00544
